assets/themes/natuurpunt/information_board.svg

<?xml version="1.0" encoding="UTF-8" standalone="no"?>
<svg
   width="199.53906"
   height="149.26953"
   viewBox="0 0 199.53906 149.26953"
   version="1.1"
   id="svg7"
   sodipodi:docname="information_board.svg"
   inkscape:version="1.1.1 (1:1.1+202109281949+c3084ef5ed)"
   xmlns:inkscape="http://www.inkscape.org/namespaces/inkscape"
   xmlns:sodipodi="http://sodipodi.sourceforge.net/DTD/sodipodi-0.dtd"
   xmlns="http://www.w3.org/2000/svg"
   xmlns:svg="http://www.w3.org/2000/svg">
  <defs
     id="defs11" />
  <sodipodi:namedview
     id="namedview9"
     pagecolor="#505050"
     bordercolor="#eeeeee"
     borderopacity="1"
     inkscape:pageshadow="0"
     inkscape:pageopacity="0"
     inkscape:pagecheckerboard="0"
     showgrid="false"
     inkscape:zoom="4.1922078"
     inkscape:cx="98.993185"
     inkscape:cy="82.653346"
     inkscape:current-layer="svg7" />
  <g
     id="surface1"
     transform="translate(-93.5,77)">
    <path
       style="fill:#ffffff;fill-opacity:1;fill-rule:nonzero;stroke:none"
       d="M 212.19141,40.371094 H 176.10937 V 35.96875 h 2.85938 c 0.89453,-0.128906 1.75391,-0.425781 2.53125,-0.878906 1.03125,-0.386719 1.88672,-1.128906 2.42187,-2.089844 0.57422,-1.039062 0.83985,-2.222656 0.76954,-3.410156 v -33 c 0.008,-1.230469 -0.29297,-2.441406 -0.88282,-3.519532 C 183.17578,-7.824219 182.39453,-8.605469 181.5,-9.238281 180.50781,-9.949219 179.4375,-10.539062 178.30859,-11 h -3.84765 v -4.398438 l 28.26953,-1.429687 0.76953,0.769531 v 45.097656 c -0.0117,1.195313 0.29297,2.371094 0.87891,3.410157 0.58984,0.917969 1.42968,1.644531 2.42187,2.089843 l 2.52734,0.882813 h 2.86329 z M 203.5,-37.839844 c -0.0117,2.867188 -1.25391,5.589844 -3.41016,7.480469 -4.48828,4.082031 -11.35156,4.082031 -15.83984,0 -1.91406,-2.003906 -2.90625,-4.714844 -2.75,-7.480469 0,-2.839844 1.24609,-5.53125 3.41016,-7.371094 2.07421,-2.148437 4.93359,-3.367187 7.91796,-3.367187 2.98829,0 5.84766,1.21875 7.92188,3.367187 1.91797,1.957032 2.91797,4.636719 2.75,7.371094 z m 0,0"
       id="path2" />
    <path
       style="fill:none;stroke:#ffffff;stroke-width:1;stroke-linecap:butt;stroke-linejoin:miter;stroke-miterlimit:10;stroke-opacity:1"
       d="M 0.5,0.5 H 17.639915 V 13.069957 H 0.5 Z m 0,0"
       transform="matrix(11,0,0,11,93.5,-77)"
       id="path4" />
  </g>
</svg>

<?xml version="1.0" encoding="UTF-8" standalone="yes"?>
<svg xmlns="http://www.w3.org/2000/svg" xmlns:xlink="http://www.w3.org/1999/xlink" width="385px" height="11px" viewBox="0 0 385 11" version="1.1">
  <g id="surface1">
    <path style=" stroke:none;fill-rule:nonzero;fill:rgb(100%,100%,100%);fill-opacity:1;" d="M 212.191406 40.371094 L 176.109375 40.371094 L 176.109375 35.96875 L 178.96875 35.96875 C 179.863281 35.839844 180.722656 35.542969 181.5 35.089844 C 182.53125 34.703125 183.386719 33.960938 183.921875 33 C 184.496094 31.960938 184.761719 30.777344 184.691406 29.589844 L 184.691406 -3.410156 C 184.699219 -4.640625 184.398438 -5.851562 183.808594 -6.929688 C 183.175781 -7.824219 182.394531 -8.605469 181.5 -9.238281 C 180.507812 -9.949219 179.4375 -10.539062 178.308594 -11 L 174.460938 -11 L 174.460938 -15.398438 L 202.730469 -16.828125 L 203.5 -16.058594 L 203.5 29.039062 C 203.488281 30.234375 203.792969 31.410156 204.378906 32.449219 C 204.96875 33.367188 205.808594 34.09375 206.800781 34.539062 L 209.328125 35.421875 L 212.191406 35.421875 Z M 203.5 -37.839844 C 203.488281 -34.972656 202.246094 -32.25 200.089844 -30.359375 C 195.601562 -26.277344 188.738281 -26.277344 184.25 -30.359375 C 182.335938 -32.363281 181.34375 -35.074219 181.5 -37.839844 C 181.5 -40.679688 182.746094 -43.371094 184.910156 -45.210938 C 186.984375 -47.359375 189.84375 -48.578125 192.828125 -48.578125 C 195.816406 -48.578125 198.675781 -47.359375 200.75 -45.210938 C 202.667969 -43.253906 203.667969 -40.574219 203.5 -37.839844 Z M 203.5 -37.839844 "/>
    <path style="fill:none;stroke-width:1;stroke-linecap:butt;stroke-linejoin:miter;stroke:rgb(100%,100%,100%);stroke-opacity:1;stroke-miterlimit:10;" d="M 0.5 0.5 L 17.639915 0.5 L 17.639915 13.069957 L 0.5 13.069957 Z M 0.5 0.5 " transform="matrix(11,0,0,11,93.5,-77)"/>
  </g>
</svg>
